X:170
T: SO SEI GEGRUESST VIEL TAUSENDMAL
N: B0204
O: Europa, Mitteleuropa, Deutschland
R: Jahreszeiten - Lied, Fruehling
M: 3/4
L: 1/16
K: G
D4 | G3BA4G4 | e3cA8 |
d6B2A2G2 | B4A4z2
D2 | G3BA4G4 | g3e^c8 |
d6A2A2G2 | G4F4z4 |
(3D2F2A2c4e4 | (3d2F2A2c8
B3Bc2d2e2f2 | g3ed4z2
D2 | c3AG4D4 | c3AG4

@@@ Tune index: 1973
